assets/img/braze_icons/coins-stacked-04.svg

<svg fill="none" height="24" viewBox="0 0 24 24" width="24" xmlns="http://www.w3.org/2000/svg"><g fill="#801ed7"><path clip-rule="evenodd" d="m3.96527 3.08401c-.52778.46793-.96527 1.1131-.96527 1.91599v2c0 .80289.43749 1.44806.96527 1.91599.52895.46897 1.23729.84561 2.02675 1.14161 1.58631.5949 3.71067.9424 6.00798.9424 2.2973 0 4.4217-.3475 6.008-.9424.7894-.296 1.4978-.67264 2.0267-1.14161.5278-.46793.9653-1.1131.9653-1.91599v-2c0-.80289-.4375-1.44806-.9653-1.91599-.5289-.46897-1.2373-.84561-2.0267-1.14166-1.5863-.59486-3.7107-.94235-6.008-.94235-2.29731 0-4.42167.34749-6.00798.94235-.78946.29605-1.4978.67269-2.02675 1.14166z" fill-rule="evenodd"/><path d="m20.7528 10.25c-.0844 0-.1624.0436-.2111.1126-.5903.8365-1.6047 1.3467-2.5337 1.695-1.5863.5949-3.7107.9424-6.008.9424-2.29731 0-4.42167-.3475-6.00798-.9424-.92899-.3483-1.94344-.8585-2.53371-1.695-.04868-.069-.12667-.1126-.21111-.1126-.13653 0-.2472.1107-.2472.2472v2.5028c0 .8029.43749 1.4481.96527 1.916.52895.469 1.23729.8456 2.02675 1.1416 1.58631.5949 3.71067.9424 6.00798.9424 2.2973 0 4.4217-.3475 6.008-.9424.7894-.296 1.4978-.6726 2.0267-1.1416.5278-.4679.9653-1.1131.9653-1.916v-2.5028c0-.1365-.1107-.2472-.2472-.2472z"/><path d="m20.7528 16.25c-.0844 0-.1624.0436-.2111.1126-.5903.8365-1.6047 1.3467-2.5337 1.695-1.5863.5949-3.7107.9424-6.008.9424-2.29731 0-4.42167-.3475-6.00798-.9424-.92899-.3483-1.94344-.8585-2.53371-1.695-.04868-.069-.12667-.1126-.21111-.1126-.13653 0-.2472.1107-.2472.2472v2.5028c0 .8029.43749 1.4481.96527 1.916.52895.469 1.23729.8456 2.02675 1.1416 1.58631.5949 3.71067.9424 6.00798.9424 2.2973 0 4.4217-.3475 6.008-.9424.7894-.296 1.4978-.6726 2.0267-1.1416.5278-.4679.9653-1.1131.9653-1.916v-2.5028c0-.1365-.1107-.2472-.2472-.2472z"/></g></svg>

<svg width="24" height="24" viewBox="0 0 24 24" fill="none" xmlns="http://www.w3.org/2000/svg">
<path fill-rule="evenodd" clip-rule="evenodd" d="M3.96527 3.08401C3.43749 3.55194 3 4.19711 3 5V7C3 7.80289 3.43749 8.44806 3.96527 8.91599C4.49422 9.38496 5.20256 9.7616 5.99202 10.0576C7.57833 10.6525 9.70269 11 12 11C14.2973 11 16.4217 10.6525 18.008 10.0576C18.7974 9.7616 19.5058 9.38496 20.0347 8.91599C20.5625 8.44806 21 7.80289 21 7V5C21 4.19711 20.5625 3.55194 20.0347 3.08401C19.5058 2.61504 18.7974 2.2384 18.008 1.94235C16.4217 1.34749 14.2973 1 12 1C9.70269 1 7.57833 1.34749 5.99202 1.94235C5.20256 2.2384 4.49422 2.61504 3.96527 3.08401Z" fill="#801ED7"/>
<path d="M20.7528 10.25C20.6684 10.25 20.5904 10.2936 20.5417 10.3626C19.9514 11.1991 18.937 11.7093 18.008 12.0576C16.4217 12.6525 14.2973 13 12 13C9.70269 13 7.57833 12.6525 5.99202 12.0576C5.06303 11.7093 4.04858 11.1991 3.45831 10.3626C3.40963 10.2936 3.33164 10.25 3.2472 10.25C3.11067 10.25 3 10.3607 3 10.4972V13C3 13.8029 3.43749 14.4481 3.96527 14.916C4.49422 15.385 5.20256 15.7616 5.99202 16.0576C7.57833 16.6525 9.70269 17 12 17C14.2973 17 16.4217 16.6525 18.008 16.0576C18.7974 15.7616 19.5058 15.385 20.0347 14.916C20.5625 14.4481 21 13.8029 21 13V10.4972C21 10.3607 20.8893 10.25 20.7528 10.25Z" fill="#801ED7"/>
<path d="M20.7528 16.25C20.6684 16.25 20.5904 16.2936 20.5417 16.3626C19.9514 17.1991 18.937 17.7093 18.008 18.0576C16.4217 18.6525 14.2973 19 12 19C9.70269 19 7.57833 18.6525 5.99202 18.0576C5.06303 17.7093 4.04858 17.1991 3.45831 16.3626C3.40963 16.2936 3.33164 16.25 3.2472 16.25C3.11067 16.25 3 16.3607 3 16.4972V19C3 19.8029 3.43749 20.4481 3.96527 20.916C4.49422 21.385 5.20256 21.7616 5.99202 22.0576C7.57833 22.6525 9.70269 23 12 23C14.2973 23 16.4217 22.6525 18.008 22.0576C18.7974 21.7616 19.5058 21.385 20.0347 20.916C20.5625 20.4481 21 19.8029 21 19V16.4972C21 16.3607 20.8893 16.25 20.7528 16.25Z" fill="#801ED7"/>
</svg>
